images/header/logo.svg

<svg width="142" height="42" viewBox="0 0 142 42" fill="none" xmlns="http://www.w3.org/2000/svg">
<path d="M6.26522 18.8859L8.39953 17.8289L11.7731 12.755L12.8058 12.3322L13.9074 17.4765L12.4616 17.6879L11.36 15.5738L10.5338 18.8859H14.1828L17.9695 19.8725L19.4841 18.8859L22.0315 21.5638L23.1331 16.6309L24.9232 18.4631L26.0248 16.9128L27.8148 16.4195L30.4311 13.953L30.8442 12.755L32.9785 13.1074L33.8735 14.3054L32.29 17.6879L36.2143 15.6443V14.6577L37.729 14.3054L39.3814 15.9966L41.0337 13.953V12.5436L43.7188 10.6409L44.8204 9.02013H46.5416L49.571 2.74832L52.1872 0L53.1511 1.55034L51.6364 3.52349L52.1872 4.79195L53.633 5.07383L54.8035 10.2886V14.6577L56.8689 17.547L57.9016 21.5638L54.3215 19.2383L52.738 12.5436L51.7741 12.755L51.6364 17.2651L49.0202 21.5638L48.2628 28.1175L50.0529 28.5403L50.8102 27.6242L52.5315 29.5973L53.8396 35.5168L53.7019 39.3221H52.0495L51.4299 33.9664L50.2595 35.5872L47.7121 35.0235L45.6466 33.2617L43.3058 34.1074L43.4435 37.9128L41.5845 38.406L38.8306 40.5201L35.5259 40.0973L34.2177 39.3221L32.1523 39.6745L32.8408 40.5201L31.1884 41.5067L29.8803 40.8725L27.4017 42L23.6151 40.0973L22.1692 36.7148L20.93 36.8557L19.4841 35.6577L19.4153 34.7416L14.8024 34.2483L14.0451 36.7852L11.1535 35.4463L9.70765 32.9799H6.60946L6.26522 36.9262L4.47516 37.4899L3.58013 41.0839L2.89164 40.4497L0 32.9094L3.44243 31.2181L2.89164 27.906L2.34085 24.5235L3.85552 22.3389L3.37358 21L5.43904 18.745L6.26522 18.8859ZM52.0495 27.2013L55.2166 31.9933L56.2493 31.5705L54.9412 29.5973L52.0495 26.4966V27.2013ZM19.6907 17.4765V16.0671L22.1004 14.3054L24.1658 13.2483H21.7561L19.6218 14.5168L18.3137 15.7148V17.4765H19.6907Z" fill="white"/>
<path d="M72.4776 33.1157H76.2883V28.9304H78.3993C81.6001 28.9304 83.7454 27.0374 83.7454 24.0017C83.7454 21.0004 81.6549 19.0178 78.5364 19.0178H72.4776V33.1157ZM76.2883 25.9567V22.0742H77.6317C78.9682 22.0742 79.7701 22.7901 79.7701 24.0017C79.7701 25.2063 78.9682 25.9567 77.6317 25.9567H76.2883Z" fill="white"/>
<path d="M90.0441 33.3085C93.471 33.3085 95.4998 31.1057 95.4998 27.8566C95.4998 24.6074 93.471 22.4046 90.0441 22.4046C86.6172 22.4046 84.5884 24.6074 84.5884 27.8566C84.5884 31.1057 86.6172 33.3085 90.0441 33.3085ZM90.0715 30.4999C89.0571 30.4999 88.454 29.488 88.454 27.829C88.454 26.17 89.0571 25.1581 90.0715 25.1581C91.0311 25.1581 91.6342 26.17 91.6342 27.829C91.6342 29.488 91.0311 30.4999 90.0715 30.4999Z" fill="white"/>
<path d="M102.107 33.3085C105.225 33.3085 107.138 31.5118 107.179 28.7101H103.67C103.587 29.8184 102.991 30.4173 102.162 30.4173C101.168 30.4173 100.517 29.5637 100.517 27.829C100.517 26.0943 101.168 25.2407 102.162 25.2407C102.998 25.2407 103.567 25.8396 103.67 26.9479H107.179C107.158 24.1944 105.205 22.4046 102.107 22.4046C98.68 22.4046 96.6513 24.6074 96.6513 27.8566C96.6513 31.1057 98.68 33.3085 102.107 33.3085Z" fill="white"/>
<path d="M113.812 33.3085C116.93 33.3085 118.842 31.5118 118.884 28.7101H115.374C115.292 29.8184 114.696 30.4173 113.867 30.4173C112.873 30.4173 112.222 29.5637 112.222 27.829C112.222 26.0943 112.873 25.2407 113.867 25.2407C114.703 25.2407 115.272 25.8396 115.374 26.9479H118.884C118.863 24.1944 116.91 22.4046 113.812 22.4046C110.385 22.4046 108.356 24.6074 108.356 27.8566C108.356 31.1057 110.385 33.3085 113.812 33.3085Z" fill="white"/>
<path d="M124.009 28.2696V22.5423H120.445V33.1157H124.009L126.942 27.3609V33.1157H130.506V22.5423H126.942L124.009 28.2696Z" fill="white"/>
<path d="M138.491 33.1157H142V22.5423H137.065C134.029 22.5423 132.11 24.0843 132.13 26.232C132.117 27.4367 132.836 28.4348 134.097 29.0268L132.021 33.1157H135.503L137.278 29.6188H138.491V33.1157ZM138.491 27.3334H137.147C136.14 27.3334 135.674 26.8378 135.694 26.3697C135.674 25.9291 136.113 25.3784 137.065 25.3784H138.491V27.3334Z" fill="white"/>
</svg>

<svg xmlns="http://www.w3.org/2000/svg" width="142" height="42" fill="none"><path fill="#fff" d="M6.265 18.886 8.4 17.829l3.373-5.074 1.033-.423 1.101 5.145-1.445.21-1.102-2.113-.826 3.312h3.649l3.787.986 1.514-.986 2.547 2.678 1.102-4.933 1.79 1.832 1.102-1.55 1.79-.494 2.616-2.466.413-1.198 2.134.352.895 1.198-1.583 3.383 3.924-2.044v-.986l1.515-.353 1.652 1.692 1.653-2.044v-1.41l2.685-1.902 1.101-1.62h1.722l3.029-6.273L52.187 0l.964 1.55-1.515 1.973.551 1.269 1.446.282 1.17 5.215v4.369l2.066 2.889 1.033 4.017-3.58-2.326-1.584-6.694-.964.211-.138 4.51-2.616 4.299-.757 6.553 1.79.423.757-.916 1.721 1.973 1.309 5.92-.138 3.805H52.05l-.62-5.356-1.17 1.621-2.548-.564-2.065-1.761-2.341.845.138 3.806-1.86.493-2.753 2.114-3.305-.423-1.308-.775-2.066.352.689.846-1.653.987-1.308-.634L27.402 42l-3.787-1.903-1.446-3.382-1.239.14-1.446-1.197-.069-.916-4.613-.494-.757 2.537-2.892-1.339-1.445-2.466H6.609l-.344 3.946-1.79.564-.895 3.594-.688-.634L0 32.91l3.442-1.692-.55-3.312-.551-3.383 1.515-2.184L3.374 21l2.065-2.255.826.14ZM52.05 27.2l3.167 4.792 1.032-.422-1.308-1.974-2.892-3.1v.704Zm-32.36-9.724v-1.41l2.41-1.762 2.066-1.057h-2.41l-2.134 1.269-1.308 1.198v1.762h1.377ZM72.478 33.116h3.81V28.93H78.4c3.201 0 5.346-1.893 5.346-4.928 0-3.002-2.09-4.984-5.209-4.984h-6.058v14.098Zm3.81-7.16v-3.882h1.344c1.336 0 2.138.716 2.138 1.928 0 1.204-.802 1.955-2.138 1.955h-1.344ZM90.044 33.309c3.427 0 5.456-2.203 5.456-5.452 0-3.25-2.029-5.452-5.456-5.452-3.427 0-5.456 2.202-5.456 5.452 0 3.249 2.03 5.452 5.456 5.452Zm.028-2.81c-1.015 0-1.618-1.011-1.618-2.67s.603-2.67 1.618-2.67c.96 0 1.562 1.011 1.562 2.67s-.603 2.67-1.563 2.67ZM102.107 33.309c3.118 0 5.031-1.797 5.072-4.599h-3.509c-.083 1.108-.679 1.707-1.508 1.707-.994 0-1.645-.853-1.645-2.588s.651-2.588 1.645-2.588c.836 0 1.405.599 1.508 1.707h3.509c-.021-2.754-1.974-4.543-5.072-4.543-3.427 0-5.456 2.202-5.456 5.452 0 3.249 2.029 5.452 5.456 5.452ZM113.812 33.309c3.118 0 5.03-1.797 5.072-4.599h-3.51c-.082 1.108-.678 1.707-1.507 1.707-.994 0-1.645-.853-1.645-2.588s.651-2.588 1.645-2.588c.836 0 1.405.599 1.507 1.707h3.51c-.021-2.754-1.974-4.543-5.072-4.543-3.427 0-5.456 2.202-5.456 5.452 0 3.249 2.029 5.452 5.456 5.452ZM124.009 28.27v-5.728h-3.564v10.574h3.564l2.933-5.755v5.755h3.564V22.542h-3.564l-2.933 5.728ZM138.491 33.116H142V22.542h-4.935c-3.036 0-4.955 1.542-4.935 3.69-.013 1.205.706 2.203 1.967 2.795l-2.076 4.089h3.482l1.775-3.497h1.213v3.497Zm0-5.783h-1.344c-1.007 0-1.473-.495-1.453-.963-.02-.44.419-.992 1.371-.992h1.426v1.955Z"/></svg>
